X:1
T: The Legacy
C:
R:Jig
Q:180
K:G
M:6/8
L:1/16
|:G4G2 G2D2B,2|d4d2 d2B2G2|G4A2 B2A2B2|E4F2 G6|
G4G2 G2D2B,2|d4d2 d2B2G2|G4A2 B2A2B2|E4F2 G6|
G2B2d2 g4g2|f2e2d2 e2d2B2|G2B2d2 g4g2|f2e2d2 e4f2|
g2g2g2 f2d2B2|e2e2e2 d2B2G2|G4A2 B2A2B2|E4F2 G4:|
